X:1
T:Title
%%score 1 2
L:1/8
Q:1/4=102
M:4/4
K:C
V:1 treble nm="Grand Piano, Soprano"
V:2 bass nm="Choir Pad, Nijmegen, L. Daugherty"
V:1
 [EG]2 [Ec]2- [Ec][Fc][Fc][Fc] | [Gc]>[Gd] [Ge]6 | [Ec]2 [Fd]2- [Fd][Fd] [FA]2 | [GB]2 [Ec]6 | %4
w: By~Leonard~Daugherty,~1899 * * * * *||||
 [EG]2 [Ec]2- [Ec][Ec][Ec][Ec] | [Gc]>[Gd] [Ge]6 | [Ec]2 [Fd]2- [Fd][Af] [Ge]2 | [Fd]2 [Ec]6 | %8
w: ||||
 [CE][DF]- [DF]/[_E^F]/[=EG]- [EG]4 | [EG][Ec]- [Ec]/[Fd]/[Ge]- [Ge]4- | %10
w: ||
 [Ge] [Gc]2 [Fc]- [Fc]2 [Fd][Ec]- | [Ec] [Gd]2 [Ge]- [Ge]2- [Ge]/ z/ z | %12
w: ||
 [Ec][Ac]- [Ac]/[GB]/[FA]- [FA]4 | [Ac][GB]- [GB]/[FA]/[EG]- [EG]4- | %14
w: ||
 [EG] [Gc]2 [Fd]- [Fd]2 [Fd][FA]- | [FA] [FB]2 [Ec]- [Ec]4- | [Ec]4 z4 |] %17
w: |||
V:2
 [C,C]2 [C,G,]2- [C,G,][C,G,][C,G,][C,G,] | [E,G,]>[G,B,] C6 | %2
 [C,G,]2 [F,A,]2- [F,A,][F,A,] [G,D]2 | [G,D]2 [C,C]6 | [C,C]2 [C,G,]2- [C,G,][C,G,][C,G,][C,G,] | %5
 [E,G,]>[G,B,] C6 | [C,G,]2 [F,A,]2- [F,A,][F,C] [G,C]2 | G,2 [C,G,]6 | %8
 z4 [C,C][C,C]- [C,C]/[C,C]/[C,C]- | [C,C]2 z2 [C,C][C,C]- [C,C]/[C,C]/[C,C]- | %10
 [C,C] [E,C]2 [F,A,]- [F,A,]2 [F,A,]G,- | G, [G,B,]2 [C,C]- [C,C]2- [C,C]/ z/ z | %12
 z4 [F,C][F,C]- [F,C]/[F,C]/[F,C]- | [F,C]2 z2 [C,C][C,C]- [C,C]/[C,C]/[C,C]- | %14
 [C,C] [E,C]2 [F,A,]- [F,A,]2 [F,A,][F,D]- | [F,D] [G,D]2 [C,C]- [C,C]4- | [C,C]4 z4 |] %17

